src/assets/icons/realtime-dashboard/waiting-calls-icon.svg

<?xml version="1.0" encoding="UTF-8"?>
<svg width="26px" height="26px" viewBox="0 0 26 26" version="1.1" xmlns="http://www.w3.org/2000/svg" xmlns:xlink="http://www.w3.org/1999/xlink">
    <!-- Generator: Sketch 63.1 (92452) - https://sketch.com -->
    <title>Group 12</title>
    <desc>Created with Sketch.</desc>
    <g id="Page-1" stroke="none" stroke-width="1" fill="none" fill-rule="evenodd">
        <g id="11" transform="translate(-121.000000, -197.000000)" fill-rule="nonzero">
            <g id="Group-9" transform="translate(121.000000, 189.000000)">
                <g id="Group-2">
                    <g id="Group-12" transform="translate(0.000000, 8.000000)">
                        <g id="Group-10">
                            <g id="Group-9">
                                <g id="hourglass-(1)">
                                    <path d="M14.8870201,0.775803549 L15.5298316,0.133198765 C15.7072341,-0.0443995885 15.9952407,-0.0443995885 16.1726431,0.133198765 L25.8152122,9.77563976 C25.9928129,9.95323812 25.9928129,10.2410426 25.8152122,10.4186409 L25.1725988,11.0612457 C24.9949981,11.238844 24.7071899,11.238844 24.5295892,11.0612457 L14.8870201,1.41880473 C14.7096176,1.24120638 14.7096176,0.953401903 14.8870201,0.775803549 L14.8870201,0.775803549 Z" id="Path" fill="#6C6766"></path>
                                    <path d="M12.0340914,12.2134678 C14.3715596,13.7494083 15.314818,16.7204155 14.2935979,19.3302235 L14.2834921,19.3314921 L14.1716568,19.5980964 C13.8796618,20.2417129 13.4723591,20.8280364 12.9687298,21.3278829 L10.3985484,23.8849206 L4.59126984,18.1071429 C4.83707164,18.2205874 5.17003881,18.3651112 5.5760142,18.5199144 C5.17760181,18.365826 4.85032975,18.2224562 4.60793499,18.1096126 L2.06349206,15.556397 L4.63029462,12.9805445 C6.60585404,10.9976225 9.69642522,10.6775274 12.0340914,12.2134678 Z M15.538814,2.06349206 L23.8849206,10.4347257 L23.5136219,10.8069438 L23.4974921,10.8094921 L21.3260904,12.9759279 C19.7788138,14.5205971 17.5010768,15.0843422 15.409124,14.4404008 C13.3237095,13.798472 11.7642192,12.0614121 11.35304,9.92486969 C11.3508924,9.92409404 11.3493655,9.92362017 11.3478488,9.92314921 C10.9878316,8.00091596 11.5950514,6.02409067 12.9713901,4.63844694 L15.538814,2.06349206 Z" id="Combined-Shape" fill-opacity="0.697716346" fill="#7AB1F6"></path>
                                    <path d="M4.59126984,18.1071429 C4.28890921,17.9496325 4.12698413,17.8492063 4.12698413,17.8492063" id="Path" fill="#E4C05C"></path>
                                    <g id="Group" transform="translate(14.722222, 12.793651)" fill="#484B7F">
                                        <path d="M3.11935124,12.2974645 C3.05227479,12.2974645 2.98598985,12.2822077 2.92583871,12.2526848 L0.256235971,10.9643766 C0.0833014069,10.8805632 -0.0170164673,10.6956984 0.00732101471,10.5046911 C0.0314606438,10.313882 0.174715342,10.1597288 0.36328125,10.1220822 C4.04536227,9.38480215 7.03135212,6.69266994 8.14889706,3.10296221 C8.35586451,2.43681451 8.49516189,1.75184352 8.56520629,1.05795617 C8.58993948,0.811865951 8.80917457,0.632350868 9.05492367,0.657118393 C9.30067273,0.681885917 9.47974114,0.901425365 9.4550079,1.14751564 C9.37882966,1.90104315 9.22726458,2.64505997 9.00308286,3.3684702 C7.9191751,6.84702124 5.21098856,9.57878152 1.74537249,10.6893579 L3.31444675,11.44665 C3.50202335,11.5375965 3.60194547,11.7462382 3.55524918,11.9497283 C3.50875075,12.1532184 3.32790162,12.2974645 3.11935124,12.2974645 L3.11935124,12.2974645 Z" id="Path"></path>
                                        <path d="M0.449550654,11.0091563 C0.286707248,11.00876 0.136725145,10.919795 0.058370366,10.7769358 C-0.0199844134,10.6338786 -0.0146420294,10.4595151 0.0726166895,10.3218076 L1.66879848,7.80126491 C1.75229779,7.66197227 1.90485219,7.57875334 2.06710198,7.58410314 C2.22935178,7.58945294 2.37597018,7.68257886 2.45016979,7.82702312 C2.5241715,7.97166556 2.51427825,8.14523646 2.42405153,8.28036812 L0.82727608,10.8009109 C0.745359745,10.9304946 0.602698657,11.0091563 0.449550654,11.0091563 L0.449550654,11.0091563 Z" id="Path"></path>
                                    </g>
                                    <path d="M0.133198765,15.5297718 L0.775803546,14.887167 C0.953401899,14.7095687 1.24120637,14.7095687 1.41880473,14.887167 L11.0612457,24.529608 C11.238844,24.7072063 11.238844,24.9950108 11.0612457,25.1726092 L10.4186409,25.8152139 C10.2410425,25.9928123 9.95303987,25.9928123 9.77563972,25.8152139 L0.133198765,16.172773 C-0.0443995883,15.9951746 -0.0443995883,15.7073702 0.133198765,15.5297718 L0.133198765,15.5297718 Z" id="Path" fill="#6C6766"></path>
                                </g>
                                <path d="M2.26915468,12.5533978 C2.2545126,12.5533978 2.23927696,12.5533978 2.22443703,12.5533978 C2.10611342,12.5415034 1.99748517,12.4828539 1.92249414,12.3903223 C1.84750306,12.2979889 1.81228296,12.1793029 1.82474851,12.0610131 C1.90112466,11.3072874 2.05249183,10.5632707 2.27687145,9.84005856 C3.36058135,6.36170565 6.06856999,3.63014355 9.53398822,2.51936903 L7.9651118,1.76227497 C7.81552545,1.69629426 7.71382251,1.55383138 7.69977404,1.39056377 C7.68592347,1.2274943 7.76190386,1.06977462 7.8980354,0.979422647 C8.03436479,0.888872545 8.20888223,0.879956244 8.353522,0.956240245 L11.0231247,2.24454848 C11.1960593,2.32816366 11.2963772,2.51322667 11.2720397,2.70403578 C11.2479001,2.89504303 11.1046454,3.04899803 10.9162773,3.08664471 C7.23399843,3.82412286 4.24800858,6.51605695 3.13046364,10.1059628 C2.92448556,10.7719124 2.78578174,11.4568834 2.71633095,12.1503744 C2.69337854,12.3802172 2.4996681,12.5545806 2.26915468,12.5533978 Z" id="Path" fill="#484B7F"></path>
                            </g>
                            <path d="M9.23224318,5.61570894 C9.06939978,5.61550932 8.91961548,5.52654429 8.84106284,5.38348702 C8.76270807,5.24062788 8.7682483,5.06626442 8.85530917,4.92835877 L10.4520846,2.40781608 C10.5355839,2.26852344 10.6879404,2.18530451 10.8501902,2.19065432 C11.01244,2.19600407 11.1590584,2.28913003 11.233258,2.43377242 C11.3074576,2.57841486 11.2975643,2.75178763 11.2073376,2.88691929 L9.61095792,5.40746198 C9.52884369,5.53744202 9.38578689,5.61610375 9.23224318,5.61570894 Z" id="Path" fill="#484B7F"></path>
                        </g>
                    </g>
                </g>
            </g>
        </g>
    </g>
</svg>

<?xml version="1.0" encoding="UTF-8"?>
<svg version="1.1" viewBox="0 0 26 26" xmlns="http://www.w3.org/2000/svg">
<title>Group 12</title>
<desc>Created with Sketch.</desc>
<g fill="none" fill-rule="evenodd">
<g transform="translate(-121 -197)" fill-rule="nonzero">
<g id="a" transform="translate(121 189)">
<g transform="translate(0 8)">
<path id="Path" d="m14.887 0.7758 0.64281-0.6426c0.1774-0.1776 0.46541-0.1776 0.64281 0l9.6426 9.6424c0.1776 0.1776 0.1776 0.4654 0 0.643l-0.64261 0.6426c-0.1776 0.1776-0.46541 0.1776-0.64301 0l-9.6426-9.6424c-0.1774-0.1776-0.1774-0.4654 0-0.643z" fill="#6C6766"/>
<path d="m12.034 12.213c2.3375 1.5359 3.2807 4.5069 2.2595 7.1168l-0.010106 0.0012686-0.11184 0.2666c-0.292 0.64362-0.6993 1.2299-1.2029 1.7298l-2.5702 2.557-5.8073-5.7778c0.2458 0.11344 0.57877 0.25797 0.98474 0.41277-0.39841-0.15409-0.72568-0.29746-0.96808-0.4103l-2.5444-2.5532 2.5668-2.5759c1.9756-1.9829 5.0661-2.303 7.4038-0.76708zm3.5047-10.15 8.3461 8.3712-0.3713 0.37222-0.01613 0.0025483-2.1714 2.1664c-1.5473 1.5447-3.825 2.1084-5.917 1.4645-2.0854-0.64193-3.6449-2.379-4.0561-4.5155-0.0021476-7.7565e-4 -0.0036745-0.0012495-0.0051912-0.0017205-0.36002-1.9222 0.2472-3.8991 1.6235-5.2847l2.5674-2.575z" fill="#7AB1F6" fill-opacity=".69772"/>
<path id="Path" d="m4.5913 18.107c-0.30236-0.15751-0.46429-0.25794-0.46429-0.25794" fill="#E4C05C"/>
<g transform="translate(14.722 12.794)" fill="#484B7F">
<path id="Path" d="m3.1194 12.297c-0.067076 0-0.13336-0.015257-0.19351-0.04478l-2.6696-1.2883c-0.17293-0.083813-0.27325-0.26868-0.24891-0.45969 0.02414-0.19081 0.16739-0.34496 0.35596-0.38261 3.6821-0.73728 6.6681-3.4294 7.7856-7.0191 0.20697-0.66615 0.34626-1.3511 0.41631-2.045 0.024733-0.24609 0.24397-0.42561 0.48972-0.40084 0.24575 0.024768 0.42482 0.24431 0.40008 0.4904-0.076178 0.75353-0.22774 1.4975-0.45193 2.221-1.0839 3.4786-3.7921 6.2103-7.2577 7.3209l1.5691 0.75729c0.18758 0.090946 0.2875 0.29959 0.2408 0.50308-0.046498 0.20349-0.22735 0.34774-0.4359 0.34774z"/>
<path id="Path" d="m0.44955 11.009c-0.16284-3.963e-4 -0.31283-0.089361-0.39118-0.23222-0.078355-0.14306-0.073012-0.31742 0.014246-0.45513l1.5962-2.5205c0.083499-0.13929 0.23605-0.22251 0.3983-0.21716 0.16225 0.0053498 0.30887 0.098476 0.38307 0.24292 0.074002 0.14464 0.064108 0.31821-0.026118 0.45334l-1.5968 2.5205c-0.081916 0.12958-0.22458 0.20825-0.37773 0.20825z"/>
</g>
<path id="Path" d="m0.1332 15.53 0.6426-0.6426c0.1776-0.1776 0.4654-0.1776 0.643 0l9.6424 9.6424c0.1776 0.1776 0.1776 0.4654 0 0.643l-0.6426 0.6426c-0.1776 0.1776-0.4656 0.1776-0.643 0l-9.6424-9.6424c-0.1776-0.1776-0.1776-0.4654 0-0.643z" fill="#6C6766"/>
<path id="b" d="m2.2692 12.553h-0.044718c-0.11832-0.011894-0.22695-0.070544-0.30194-0.16308-0.074991-0.092333-0.11021-0.21102-0.097746-0.32931 0.076376-0.75373 0.22774-1.4977 0.45212-2.221 1.0837-3.4784 3.7917-6.2099 7.2571-7.3207l-1.5689-0.75709c-0.14959-0.065981-0.25129-0.20844-0.26534-0.37171-0.013851-0.16307 0.06213-0.32079 0.19826-0.41114 0.13633-0.09055 0.31085-0.099466 0.45549-0.023182l2.6696 1.2883c0.17293 0.083615 0.27325 0.26868 0.24892 0.45949-0.02414 0.19101-0.16739 0.34496-0.35576 0.38261-3.6823 0.73748-6.6683 3.4294-7.7858 7.0193-0.20598 0.66595-0.34468 1.3509-0.41413 2.0444-0.022952 0.22984-0.21666 0.40421-0.44718 0.40302z" fill="#484B7F"/>
<path d="m9.2322 5.6157c-0.16284-1.9962e-4 -0.31263-0.089165-0.39118-0.23222-0.078355-0.14286-0.072815-0.31722 0.014246-0.45513l1.5968-2.5205c0.083499-0.13929 0.23586-0.22251 0.39811-0.21716 0.16225 0.0053498 0.30887 0.098476 0.38307 0.24312 0.0742 0.14464 0.064306 0.31802-0.02592 0.45315l-1.5964 2.5205c-0.082114 0.12998-0.22517 0.20864-0.37871 0.20825z" fill="#484B7F"/>
</g>
</g>
</g>
</g>
</svg>
